Yaru++/apps/16/accessibility.svg

<svg height="16" viewBox="0 0 16 16" width="16" xmlns="http://www.w3.org/2000/svg"><g fill="#808080"><path d="m18.19-.16h4.625v3.594h-4.625z"/><path d="m8 1c-3.862 0-7 3.138-7 7s3.138 7 7 7 7-3.138 7-7-3.138-7-7-7zm0 .666c3.502 0 6.333 2.832 6.333 6.334s-2.831 6.334-6.333 6.334-6.333-2.832-6.333-6.334 2.831-6.334 6.333-6.334zm0 1.667c-.354 0-.693.141-.943.391s-.391.589-.391.943c0 .353.141.693.391.943s.589.39.943.39c.353 0 .693-.14.943-.39s.39-.59.39-.943c0-.354-.14-.693-.39-.943s-.59-.391-.943-.391zm-4 3.334v.666l.826.002c.348 0 .643.05.886.156.239.1.435.246.578.437.148.184.25.405.308.658.058.254.066.524.084.808v.004l-.006 3.269h.657v-2.333c0-.369.299-.667.667-.667s.667.298.667.667v2.333h.666l.006-3.265c.001-.295.028-.567.085-.816.058-.254.16-.475.308-.659.144-.191.34-.337.578-.436.243-.106.587-.156.885-.156h.805v-.668z"/></g></svg>

<svg xmlns="http://www.w3.org/2000/svg" width="16" height="16" viewBox="0 0 16 16">
 <defs>
  <style id="current-color-scheme" type="text/css">
   .ColorScheme-Text { color: #808080; } .ColorScheme-Highlight { color: #5294e2; }
  </style>
 </defs>
  <rect fill="currentColor" class="ColorScheme-Text" width="4.625" height="3.594" x="18.19" y="-.16" transform="matrix(1,0,0,1,0,0)"/>
  <path fill="currentColor" class="ColorScheme-Text" d="M 8 1 C 4.138 1 1 4.138 1 8 C 1 11.862 4.138 15 8 15 C 11.862 15 15 11.862 15 8 C 15 4.138 11.862 1 8 1 L 8 1 Z M 8 1.666 C 11.502 1.666 14.333 4.498 14.333 8 C 14.333 11.502 11.502 14.334 8 14.334 C 4.498 14.334 1.667 11.502 1.667 8 C 1.667 4.498 4.498 1.666 8 1.666 L 8 1.666 Z M 8 3.333 C 7.646 3.333 7.307 3.474 7.057 3.724 C 6.807 3.974 6.666 4.313 6.666 4.667 C 6.666 5.02 6.807 5.36 7.057 5.61 C 7.307 5.86 7.646 6 8 6 C 8.353 6 8.693 5.86 8.943 5.61 C 9.193 5.36 9.333 5.02 9.333 4.667 C 9.333 4.313 9.193 3.974 8.943 3.724 C 8.693 3.474 8.353 3.333 8 3.333 L 8 3.333 Z M 4 6.667 L 4 7.333 L 4.826 7.335 C 5.174 7.335 5.469 7.385 5.712 7.491 C 5.951 7.591 6.147 7.737 6.29 7.928 C 6.438 8.112 6.54 8.333 6.598 8.586 C 6.656 8.84 6.664 9.11 6.682 9.394 L 6.682 9.398 L 6.676 12.667 L 7.333 12.667 L 7.333 10.334 C 7.333 9.965 7.632 9.667 8 9.667 C 8.368 9.667 8.667 9.965 8.667 10.334 L 8.667 12.667 L 9.333 12.667 L 9.339 9.402 C 9.34 9.107 9.367 8.835 9.424 8.586 C 9.482 8.332 9.584 8.111 9.732 7.927 C 9.876 7.736 10.072 7.59 10.31 7.491 C 10.553 7.385 10.897 7.335 11.195 7.335 L 12 7.335 L 12 6.667 L 4 6.667 Z"/>
</svg>
